X: 29317
T: New Year's Dip
R: jig
M: 6/8
K: Aminor
|:E^GA c2c|dcd ede|a2g e^f^f|gec dBG
ECE A,2A,|CDE D2g|ecA dcd|ecA dBG:|
|:A2c BAG|E3 E^FG|AGA c2A|dcd e2a|
age d2g|ecA dcd|ecA deg|1 ecA dBG:|2 ecA deg
|:age a2b|c'ba bag|edB G3|GAB deg
age a2b|c'ba bag|edB g3|1 edB A2a:|2 edB A2G||

